X:1
T:Title
%%score 1 { 2 | 3 }
L:1/8
Q:1/4=102
M:3/4
K:F
V:1 treble nm="Grand Piano, Soprano"
V:2 bass nm="Choir Pad, Malmö, Hugh H McGranahan"
V:3 bass 
V:1
 [FA]2 [FA][CF] [CG]2 | [B,E]2 [A,F]4 | [^CE]2 D[DF] [=CE]2 | [=B,D]2 C4 | [CG]2 [CA][CA] [CF]2 | %5
w: By~Hugh~Henry~McGranahan,~1886 * * *|||||
 [FA]2 [EB][EB] [EG]2 | [Fc]2 [Fc][FB] [FA]2 | [EG]2 [CF]4- | [CF]4 z2 |] %9
w: ||||
V:2
 C2 CA, B,2 | G,2 F,4 | G,2 F,F, G,2 | G,F, E,4 | E,2 F,F, A,2 | C2 CC C2 | _E2 =E[K:bass]D C2 | %7
 B,2 A,4- | A,4 z2 |] %9
V:3
 F,2 F,F, C,2 | C,2 D,4 | A,,2 B,,B,, G,,2 | G,,2 C,4 | C,2 z2 F,2 | F,2 C,C, C,2 | %6
 A,,2 B,,B,, C,2 | C,2 F,4- | F,4 z2 |] %9

